dist/img/cart.svg

<svg width="16" height="16" viewBox="0 0 16 16" fill="none" xmlns="http://www.w3.org/2000/svg">
<path d="M14.9026 0H13.4829C13.1457 0 12.8617 0.248454 12.8262 0.603389L12.4891 3.97527H0.8472C0.580999 3.97527 0.350291 4.0995 0.172824 4.29471C0.0131033 4.50767 -0.0401368 4.77387 0.0308501 5.02233L1.92975 12.4582C2.01848 12.8309 2.35567 13.0971 2.7461 13.0971H11.7792C11.8324 13.0971 11.9034 13.0971 11.9567 13.0793C11.9921 13.0793 12.0099 13.0971 12.0454 13.0971C12.0631 13.0971 12.0809 13.0971 12.0986 13.0971C12.3471 13.0971 12.56 12.9019 12.5778 12.6534L12.6133 12.3517L13.4829 3.99302H13.4651L13.7668 0.976071H14.9026C15.1688 0.976071 15.3995 0.76311 15.3995 0.479162C15.3995 0.195214 15.1866 0 14.9026 0ZM1.00692 4.95134H12.3826L11.655 12.121H2.85258L1.00692 4.95134Z" fill="#4F4F4F"/>
<path d="M4.36102 16C5.14512 16 5.78076 15.3644 5.78076 14.5803C5.78076 13.7962 5.14512 13.1605 4.36102 13.1605C3.57692 13.1605 2.94128 13.7962 2.94128 14.5803C2.94128 15.3644 3.57692 16 4.36102 16Z" fill="#4F4F4F"/>
<path d="M10.2176 16C11.0017 16 11.6373 15.3644 11.6373 14.5803C11.6373 13.7962 11.0017 13.1605 10.2176 13.1605C9.43349 13.1605 8.79785 13.7962 8.79785 14.5803C8.79785 15.3644 9.43349 16 10.2176 16Z" fill="#4F4F4F"/>
</svg>

<svg fill="none" xmlns="http://www.w3.org/2000/svg" viewBox="0 0 16 16"><path d="M14.903 0h-1.42a.657.657 0 00-.657.603l-.337 3.372H.847a.906.906 0 00-.674.32.83.83 0 00-.142.727l1.899 7.436a.837.837 0 00.816.64h9.033c.053 0 .124 0 .178-.019.035 0 .053.018.088.018h.054a.483.483 0 00.479-.444l.035-.301.87-8.359h-.018l.302-3.017h1.136a.496.496 0 00.496-.497c0-.284-.212-.479-.496-.479zM1.007 4.951h11.376l-.728 7.17H2.853l-1.846-7.17zM4.361 16a1.42 1.42 0 100-2.84 1.42 1.42 0 000 2.84zm5.857 0a1.42 1.42 0 100-2.84 1.42 1.42 0 000 2.84z" fill="#4F4F4F"/></svg>
